X:10054
T:Madrugaba la nia (CT 080)
R:Danza
C:Tradicional
S:Msica Tradicional Asturiana, (C) Tello & Tito. Asturies, 2001.
S:http://pagina.de/MusTradAst <telloytito@asturies.org>
N:Danza, transcrita en Avils.
N:Contina cantndose las horas hasta doce, y decrece luego hasta una, de manera anloga a la cancin sealada como CT 057.
N:Intervienen en esta danza personas de ambos sexos.
O:Avils
A:Asturies
Z:Cancioneru de Torner 080
M:6/8
Q:3/8=80
W:Madrugaba la nia a la una.
W:Ai!, Ai!, Ai! cmo madrugaba.
W:
W:Que ni una, ni media, ni nada.
W:Ai!, Ai!, Ai! cmo madrugaba.
K:C
"Solo"G2B|ddd dde|e2d "Coro"e2d|cde d2c|d3 B3-|B2 z
"Solo"G2B|ddd dde|e2d "Coro"e2d|cde d2c|d3 B3-|B2 z:||
